%
% h.mp -- bilder zum Wasserstoff-Atom
%
% (c) 2015 Prof Dr Andreas Mueller, Hochschule Rapperswil
%
verbatimtex
\documentclass{book}
\usepackage{times}
\usepackage{amsmath}
\usepackage{amssymb}
\usepackage{amsfonts}
\usepackage{txfonts}
\begin{document}
etex;

beginfig(1)

pickup pencircle scaled 1pt;

numeric u;
u := 50;

draw (-10,  0)--(210,0);
draw (  0,-60)--(  0,160);

endfig;

end
